packages/tokens/icons/zombie/size32Px.svg

<svg viewBox="0 0 32 32" fill="none" xmlns="http://www.w3.org/2000/svg" width="1em" height="1em"><path d="M26.5001 18.5C26.5001 21.835 24.9537 24.5827 22.8502 26.506C20.7362 28.4387 18.102 29.5 16.0001 29.5C11.7175 29.5 5.50003 25.6685 5.50003 18.5C5.50003 18.0695 5.4992 17.6475 5.49839 17.2339C5.49455 15.2706 5.49107 13.4958 5.57804 11.9013C5.68334 9.97067 5.91981 8.35079 6.42696 7.02845C6.92876 5.72006 7.69483 4.70415 8.87646 3.96629C10.0696 3.22122 11.7238 2.7365 14.0374 2.56717C14.8027 2.51116 15.5049 3.15973 15.7 4.0914C16.0707 5.86153 16.9751 7.25986 18.5276 8.24625C20.0591 9.21925 22.1849 9.76873 24.9683 9.94074C25.8292 9.99394 26.5001 10.6793 26.5001 11.4981V11.5091V11.5201V11.5312V11.5422V11.5533V11.5644V11.5755V11.5867V11.5979V11.6091V11.6203V11.6315V11.6428V11.6541V11.6654V11.6767V11.688V11.6994V11.7108V11.7222V11.7336V11.7451V11.7566V11.768V11.7796V11.7911V11.8026V11.8142V11.8258V11.8374V11.8491V11.8607V11.8724V11.8841V11.8958V11.9075V11.9193V11.9311V11.9429V11.9547V11.9665V11.9784V11.9902V12.0021V12.014V12.026V12.0379V12.0499V12.0619V12.0739V12.0859V12.098V12.11V12.1221V12.1342V12.1463V12.1584V12.1706V12.1828V12.195V12.2072V12.2194V12.2317V12.2439V12.2562V12.2685V12.2808V12.2931V12.3055V12.3179V12.3303V12.3427V12.3551V12.3675V12.38V12.3925V12.4049V12.4175V12.43V12.4425V12.4551V12.4677V12.4802V12.4928V12.5055V12.5181V12.5308V12.5434V12.5561V12.5688V12.5816V12.5943V12.6071V12.6198V12.6326V12.6454V12.6582V12.6711V12.6839V12.6968V12.7097V12.7225V12.7355V12.7484V12.7613V12.7743V12.7872V12.8002V12.8132V12.8262V12.8393V12.8523V12.8654V12.8784V12.8915V12.9046V12.9178V12.9309V12.944V12.9572V12.9704V12.9835V12.9967V13.01V13.0232V13.0364V13.0497V13.0629V13.0762V13.0895V13.1028V13.1162V13.1295V13.1428V13.1562V13.1696V13.183V13.1964V13.2098V13.2232V13.2366V13.2501V13.2635V13.277V13.2905V13.304V13.3175V13.331V13.3446V13.3581V13.3717V13.3853V13.3988V13.4124V13.426V13.4397V13.4533V13.4669V13.4806V13.4943V13.5079V13.5216V13.5353V13.549V13.5627V13.5765V13.5902V13.604V13.6177V13.6315V13.6453V13.6591V13.6729V13.6867V13.7005V13.7144V13.7282V13.7421V13.7559V13.7698V13.7837V13.7976V13.8115V13.8254V13.8393V13.8533V13.8672V13.8812V13.8951V13.9091V13.9231V13.9371V13.9511V13.9651V13.9791V13.9931V14.0071V14.0212V14.0352V14.0493V14.0634V14.0774V14.0915V14.1056V14.1197V14.1338V14.148V14.1621V14.1762V14.1904V14.2045V14.2187V14.2328V14.247V14.2612V14.2754V14.2896V14.3038V14.318V14.3322V14.3464V14.3606V14.3749V14.3891V14.4034V14.4176V14.4319V14.4462V14.4604V14.4747V14.489V14.5033V14.5176V14.5319V14.5462V14.5606V14.5749V14.5892V14.6036V14.6179V14.6323V14.6466V14.661V14.6753V14.6897V14.7041V14.7185V14.7329V14.7473V14.7617V14.7761V14.7905V14.8049V14.8193V14.8337V14.8482V14.8626V14.877V14.8915V14.9059V14.9204V14.9348V14.9493V14.9637V14.9782V14.9927V15.0072V15.0216V15.0361V15.0506V15.0651V15.0796V15.0941V15.1086V15.1231V15.1376V15.1521V15.1666V15.1811V15.1957V15.2102V15.2247V15.2392V15.2538V15.2683V15.2828V15.2974V15.3119V15.3265V15.341V15.3556V15.3701V15.3847V15.3992V15.4138V15.4283V15.4429V15.4574V15.472V15.4866V15.5011V15.5157V15.5303V15.5449V15.5594V15.574V15.5886V15.6031V15.6177V15.6323V15.6469V15.6615V15.676V15.6906V15.7052V15.7198V15.7344V15.749V15.7635V15.7781V15.7927V15.8073V15.8219V15.8365V15.851V15.8656V15.8802V15.8948V15.9094V15.924V15.9385V15.9531V15.9677V15.9823V15.9969V16.0114V16.026V16.0406V16.0552V16.0697V16.0843V16.0989V16.1134V16.128V16.1426V16.1572V16.1717V16.1863V16.2008V16.2154V16.23V16.2445V16.2591V16.2736V16.2882V16.3027V16.3173V16.3318V16.3463V16.3609V16.3754V16.3899V16.4045V16.419V16.4335V16.448V16.4626V16.4771V16.4916V16.5061V16.5206V16.5351V16.5496V16.5641V16.5786V16.5931V16.6075V16.622V16.6365V16.651V16.6654V16.6799V16.6944V16.7088V16.7233V16.7377V16.7522V16.7666V16.781V16.7955V16.8099V16.8243V16.8387V16.8531V16.8675V16.8819V16.8963V16.9107V16.9251V16.9395V16.9539V16.9682V16.9826V16.997V17.0113V17.0257V17.04V17.0543V17.0687V17.083V17.0973V17.1116V17.1259V17.1402V17.1545V17.1688V17.1831V17.1973V17.2116V17.2259V17.2401V17.2544V17.2686V17.2828V17.2971V17.3113V17.3255V17.3397V17.3539V17.3681V17.3823V17.3964V17.4106V17.4248V17.4389V17.4531V17.4672V17.4813V17.4954V17.5096V17.5237V17.5378V17.5518V17.5659V17.58V17.5941V17.6081V17.6222V17.6362V17.6502V17.6642V17.6782V17.6922V17.7062V17.7202V17.7342V17.7482V17.7621V17.7761V17.79V17.8039V17.8178V17.8318V17.8456V17.8595V17.8734V17.8873V17.9011V17.915V17.9288V17.9427V17.9565V17.9703V17.9841V17.9979V18.0116V18.0254V18.0392V18.0529V18.0666V18.0804V18.0941V18.1078V18.1215V18.1351V18.1488V18.1625V18.1761V18.1897V18.2034V18.217V18.2306V18.2442V18.2577V18.2713V18.2849V18.2984V18.3119V18.3254V18.3389V18.3524V18.3659V18.3794V18.3928V18.4063V18.4197V18.4331V18.4465V18.4599V18.4733V18.4866V18.5Z" stroke="currentColor"/><path d="M9.5 4V8.5M12 3V6.5" stroke="currentColor" stroke-linecap="round" stroke-linejoin="round"/><path d="M15.5 3.5L19 3.5C22.5899 3.5 25.5 6.41015 25.5 10V10" stroke="currentColor" stroke-linecap="round" stroke-linejoin="round"/><path d="M26.5 19C26.2239 19 26 19.2239 26 19.5C26 19.7761 26.2239 20 26.5 20V19ZM26.5 14H27.5V13H26.5V14ZM29 15.5V17.5H30V15.5H29ZM27.5 19H26.5V20H27.5V19ZM29 17.5C29 18.3284 28.3284 19 27.5 19V20C28.8807 20 30 18.8807 30 17.5H29ZM27.5 14C28.3284 14 29 14.6716 29 15.5H30C30 14.1193 28.8807 13 27.5 13V14Z" fill="currentColor"/><path d="M5.5 19C5.77614 19 6 19.2239 6 19.5C6 19.7761 5.77614 20 5.5 20V19ZM5.5 14H4.5V13H5.5V14ZM3 15.5L3 17.5H2L2 15.5H3ZM4.5 19H5.5V20H4.5V19ZM3 17.5C3 18.3284 3.67157 19 4.5 19V20C3.11929 20 2 18.8807 2 17.5H3ZM4.5 14C3.67157 14 3 14.6716 3 15.5H2C2 14.1193 3.11929 13 4.5 13V14Z" fill="currentColor"/><path d="M10.5 23C10.5 22.1716 11.1716 21.5 12 21.5H20C20.8284 21.5 21.5 22.1716 21.5 23V25C21.5 25.2761 21.2761 25.5 21 25.5H11C10.7239 25.5 10.5 25.2761 10.5 25V23Z" stroke="currentColor"/><path d="M10.5 23.5H21.5" stroke="currentColor"/><path d="M13 22V25M19 22V25M16 22V25" stroke="currentColor"/><path d="M12.5 14.7493C12.5 15.6681 11.6553 16.5 10.5 16.5C9.34472 16.5 8.5 15.6681 8.5 14.7493C8.5 14.6051 8.51922 14.5391 8.52966 14.5142C8.54996 14.5082 8.60316 14.4971 8.71655 14.5006C8.8737 14.5055 9.05771 14.5332 9.30026 14.5697C9.34901 14.5771 9.40011 14.5848 9.45384 14.5927C9.75741 14.6375 10.1163 14.6846 10.5 14.6846C10.8837 14.6846 11.2426 14.6375 11.5462 14.5927C11.5999 14.5848 11.651 14.5771 11.6997 14.5697C11.9423 14.5332 12.1263 14.5055 12.2834 14.5006C12.3968 14.4971 12.45 14.5082 12.4703 14.5142C12.4808 14.5391 12.5 14.6051 12.5 14.7493ZM8.53622 14.5017C8.53627 14.5017 8.53576 14.5026 8.53455 14.5041C8.53557 14.5024 8.53618 14.5016 8.53622 14.5017ZM12.4638 14.5017C12.4638 14.5016 12.4644 14.5024 12.4655 14.5041C12.4642 14.5026 12.4637 14.5017 12.4638 14.5017ZM22.5 14.4995C22.5 15.604 21.6046 16.4995 20.5 16.4995C19.3954 16.4995 18.5 15.604 18.5 14.4995C18.5 14.2212 18.5561 14.0521 18.6221 13.945C18.6862 13.8411 18.7831 13.7569 18.9363 13.6884C19.2765 13.5363 19.7947 13.5 20.5 13.5C21.2053 13.5 21.7235 13.5363 22.0637 13.6884C22.2169 13.7569 22.3138 13.8411 22.3779 13.945C22.4439 14.0521 22.5 14.2212 22.5 14.4995Z" stroke="currentColor"/><path d="M19.5 16.5V19M21.5 16.5V20" stroke="currentColor" stroke-linecap="round" stroke-linejoin="round"/></svg>

<svg xmlns="http://www.w3.org/2000/svg" fill="none" viewBox="0 0 32 32" width="1em" height="1em"><path stroke="currentColor" d="M26.5 18.5c0 3.335-1.546 6.083-3.65 8.006C20.736 28.439 18.102 29.5 16 29.5c-4.283 0-10.5-3.831-10.5-11 0-.43 0-.852-.002-1.266-.003-1.963-.007-3.738.08-5.333.105-1.93.342-3.55.849-4.873.502-1.308 1.268-2.324 2.45-3.062 1.193-.745 2.847-1.23 5.16-1.399.766-.056 1.468.593 1.663 1.524.37 1.77 1.275 3.169 2.828 4.155 1.531.973 3.657 1.523 6.44 1.695.861.053 1.532.738 1.532 1.557V18.5Z"/><path stroke="currentColor" stroke-linecap="round" stroke-linejoin="round" d="M9.5 4v4.5M12 3v3.5m3.5-3H19a6.5 6.5 0 0 1 6.5 6.5v0"/><path fill="currentColor" d="M26.5 19a.5.5 0 0 0 0 1v-1Zm0-5h1v-1h-1v1Zm2.5 1.5v2h1v-2h-1ZM27.5 19h-1v1h1v-1Zm1.5-1.5a1.5 1.5 0 0 1-1.5 1.5v1a2.5 2.5 0 0 0 2.5-2.5h-1ZM27.5 14a1.5 1.5 0 0 1 1.5 1.5h1a2.5 2.5 0 0 0-2.5-2.5v1Zm-22 5a.5.5 0 0 1 0 1v-1Zm0-5h-1v-1h1v1ZM3 15.5v2H2v-2h1ZM4.5 19h1v1h-1v-1ZM3 17.5A1.5 1.5 0 0 0 4.5 19v1A2.5 2.5 0 0 1 2 17.5h1ZM4.5 14A1.5 1.5 0 0 0 3 15.5H2A2.5 2.5 0 0 1 4.5 13v1Z"/><path stroke="currentColor" d="M10.5 23a1.5 1.5 0 0 1 1.5-1.5h8a1.5 1.5 0 0 1 1.5 1.5v2a.5.5 0 0 1-.5.5H11a.5.5 0 0 1-.5-.5v-2Zm0 .5h11M13 22v3m6-3v3m-3-3v3m-3.5-10.25c0 .918-.845 1.75-2 1.75s-2-.832-2-1.75c0-.145.02-.21.03-.236a.627.627 0 0 1 .187-.013c.157.005.34.032.583.069l.154.023c.303.044.662.092 1.046.092s.743-.048 1.046-.092l.154-.023c.242-.037.426-.065.583-.07a.627.627 0 0 1 .187.014c.01.025.03.091.03.235Zm-3.964-.248-.001.002a.01.01 0 0 1 .001-.002Zm3.928 0 .002.002-.002-.002Zm10.036-.003a2 2 0 0 1-4 0c0-.278.056-.447.122-.554a.666.666 0 0 1 .314-.257c.34-.152.859-.188 1.564-.188.705 0 1.224.036 1.564.188.153.069.25.153.314.257.066.107.122.276.122.554Z"/><path stroke="currentColor" stroke-linecap="round" stroke-linejoin="round" d="M19.5 16.5V19m2-2.5V20"/></svg>
